X: 25
T:Mullingar Races
M:4/4
L:1/8
S:Dermot Diamond, Belfast (fiddle)
R:Reel
D:Private tape - Millton Malbay 1985
N:As played
Z:Bernie Stocks
K:D
DEFD EA,~A,2 | DEFA BAAB | dcdA A{d}B{A}Bd | AFDF EDCE | DEFD EA,~A,2 |\
DEFA BAFA | dcdA Bd{e}dB | AFDG FDDA :: dAfd Adfb | afdf eB~B2 | defd Adfd |\
Acec efge| dAfd Adfb | afdf eB~B2 | dfec dB{d}BA | GBAG FDD2 :|
<end>
<start>
